img/refund__03.svg

<svg width="39" height="26" viewBox="0 0 39 26" fill="none" xmlns="http://www.w3.org/2000/svg">
<path d="M4.65307 0.591797H0.775512C0.347195 0.591797 0 0.938992 0 1.36731V5.24486C0 5.67318 0.347195 6.02037 0.775512 6.02037C1.20383 6.02037 1.55102 5.67318 1.55102 5.24486V2.14282H4.65307C5.08139 2.14282 5.42858 1.79562 5.42858 1.36731C5.42858 0.938992 5.08139 0.591797 4.65307 0.591797Z" fill="white"/>
<path d="M37.2273 0.591797H33.3497C32.9214 0.591797 32.5742 0.938992 32.5742 1.36731C32.5742 1.79562 32.9214 2.14282 33.3497 2.14282H36.4518V5.24486C36.4518 5.67318 36.799 6.02037 37.2273 6.02037C37.6556 6.02037 38.0028 5.67318 38.0028 5.24486V1.36731C38.0028 0.938992 37.6556 0.591797 37.2273 0.591797Z" fill="white"/>
<path d="M37.2273 19.9805C36.799 19.9805 36.4518 20.3277 36.4518 20.756V23.858H33.3497C32.9214 23.858 32.5742 24.2052 32.5742 24.6335C32.5742 25.0619 32.9214 25.4091 33.3497 25.4091H37.2273C37.6556 25.4091 38.0028 25.0619 38.0028 24.6335V20.756C38.0028 20.3277 37.6556 19.9805 37.2273 19.9805Z" fill="white"/>
<path d="M4.65307 23.8575H1.55102V20.7554C1.55102 20.3271 1.20383 19.9799 0.775512 19.9799C0.347195 19.9799 0 20.3271 0 20.7554V24.633C0 25.0613 0.347195 25.4085 0.775512 25.4085H4.65307C5.08139 25.4085 5.42858 25.0613 5.42858 24.633C5.42858 24.2047 5.08139 23.8575 4.65307 23.8575Z" fill="white"/>
<path d="M34.8992 21.5298V4.46854C34.8992 4.04023 34.552 3.69303 34.1237 3.69303C33.6953 3.69303 33.3481 4.04023 33.3481 4.46854V21.5298C33.3481 21.9581 33.6953 22.3053 34.1237 22.3053C34.552 22.3053 34.8992 21.9581 34.8992 21.5298Z" fill="white"/>
<path d="M30.3416 3.69303C29.9133 3.69303 29.5661 4.04023 29.5661 4.46854V17.8593C29.5661 18.2876 29.9133 18.6348 30.3416 18.6348C30.77 18.6348 31.1172 18.2876 31.1172 17.8593V4.46854C31.1172 4.04023 30.77 3.69303 30.3416 3.69303Z" fill="white"/>
<path d="M30.3416 20.575C29.9133 20.575 29.5661 20.9222 29.5661 21.3505V21.5313C29.5661 21.9596 29.9133 22.3068 30.3416 22.3068C30.77 22.3068 31.1172 21.9596 31.1172 21.5313V21.3505C31.1172 20.9222 30.77 20.575 30.3416 20.575Z" fill="white"/>
<path d="M26.5606 3.69303C26.1323 3.69303 25.7851 4.04023 25.7851 4.46854V17.8593C25.7851 18.2876 26.1323 18.6348 26.5606 18.6348C26.9889 18.6348 27.3361 18.2876 27.3361 17.8593V4.46854C27.3361 4.04023 26.9889 3.69303 26.5606 3.69303Z" fill="white"/>
<path d="M26.5606 20.575C26.1323 20.575 25.7851 20.9222 25.7851 21.3505V21.5313C25.7851 21.9596 26.1323 22.3068 26.5606 22.3068C26.9889 22.3068 27.3361 21.9596 27.3361 21.5313V21.3505C27.3361 20.9222 26.9889 20.575 26.5606 20.575Z" fill="white"/>
<path d="M22.7833 3.69336C22.355 3.69336 22.0078 4.04056 22.0078 4.46887V17.8596C22.0078 18.288 22.355 18.6352 22.7833 18.6352C23.2116 18.6352 23.5588 18.288 23.5588 17.8596V4.46887C23.5588 4.04056 23.2116 3.69336 22.7833 3.69336Z" fill="white"/>
<path d="M22.7833 20.5742C22.355 20.5742 22.0078 20.9214 22.0078 21.3497V21.5305C22.0078 21.9588 22.355 22.306 22.7833 22.306C23.2116 22.306 23.5588 21.9588 23.5588 21.5305V21.3497C23.5588 20.9214 23.2116 20.5742 22.7833 20.5742Z" fill="white"/>
<path d="M19.0021 3.69336C18.5738 3.69336 18.2266 4.04056 18.2266 4.46887V17.8596C18.2266 18.288 18.5738 18.6352 19.0021 18.6352C19.4304 18.6352 19.7776 18.288 19.7776 17.8596V4.46887C19.7776 4.04056 19.4304 3.69336 19.0021 3.69336Z" fill="white"/>
<path d="M19.0021 20.5742C18.5738 20.5742 18.2266 20.9214 18.2266 21.3497V21.5305C18.2266 21.9588 18.5738 22.306 19.0021 22.306C19.4304 22.306 19.7776 21.9588 19.7776 21.5305V21.3497C19.7776 20.9214 19.4304 20.5742 19.0021 20.5742Z" fill="white"/>
<path d="M15.2169 3.69336C14.7886 3.69336 14.4414 4.04056 14.4414 4.46887V17.8596C14.4414 18.288 14.7886 18.6352 15.2169 18.6352C15.6452 18.6352 15.9924 18.288 15.9924 17.8596V4.46887C15.9924 4.04056 15.6452 3.69336 15.2169 3.69336Z" fill="white"/>
<path d="M15.2169 20.5742C14.7886 20.5742 14.4414 20.9214 14.4414 21.3497V21.5305C14.4414 21.9588 14.7886 22.306 15.2169 22.306C15.6452 22.306 15.9924 21.9588 15.9924 21.5305V21.3497C15.9924 20.9214 15.6452 20.5742 15.2169 20.5742Z" fill="white"/>
<path d="M11.4398 3.69303C11.0115 3.69303 10.6643 4.04023 10.6643 4.46854V17.8593C10.6643 18.2876 11.0115 18.6348 11.4398 18.6348C11.8681 18.6348 12.2153 18.2876 12.2153 17.8593V4.46854C12.2153 4.04023 11.8681 3.69303 11.4398 3.69303Z" fill="white"/>
<path d="M11.4398 20.575C11.0115 20.575 10.6643 20.9222 10.6643 21.3505V21.5313C10.6643 21.9596 11.0115 22.3068 11.4398 22.3068C11.8681 22.3068 12.2153 21.9596 12.2153 21.5313V21.3505C12.2153 20.9222 11.8681 20.575 11.4398 20.575Z" fill="white"/>
<path d="M7.65877 3.69303C7.23045 3.69303 6.88326 4.04023 6.88326 4.46854V17.8593C6.88326 18.2876 7.23045 18.6348 7.65877 18.6348C8.08708 18.6348 8.43428 18.2876 8.43428 17.8593V4.46854C8.43428 4.04023 8.08708 3.69303 7.65877 3.69303Z" fill="white"/>
<path d="M7.65877 20.575C7.23045 20.575 6.88326 20.9222 6.88326 21.3505V21.5313C6.88326 21.9596 7.23045 22.3068 7.65877 22.3068C8.08708 22.3068 8.43428 21.9596 8.43428 21.5313V21.3505C8.43428 20.9222 8.08708 20.575 7.65877 20.575Z" fill="white"/>
<path d="M4.65226 21.5298V4.46854C4.65226 4.04023 4.30507 3.69303 3.87675 3.69303C3.44843 3.69303 3.10124 4.04023 3.10124 4.46854V21.5298C3.10124 21.9581 3.44843 22.3053 3.87675 22.3053C4.30507 22.3053 4.65226 21.9581 4.65226 21.5298Z" fill="white"/>
</svg>

<svg width="39" height="26" fill="none" xmlns="http://www.w3.org/2000/svg"><path d="M4.653.592H.776A.775.775 0 000 1.367v3.878a.775.775 0 101.551 0V2.143h3.102a.775.775 0 100-1.551zm32.574 0H33.35a.775.775 0 100 1.55h3.102v3.103a.775.775 0 101.55 0V1.367a.775.775 0 00-.775-.775zm0 19.388a.775.775 0 00-.775.776v3.102H33.35a.775.775 0 100 1.551h3.877a.776.776 0 00.776-.775v-3.878a.775.775 0 00-.776-.776zM4.653 23.858H1.551v-3.103a.775.775 0 10-1.551 0v3.878c0 .428.347.776.776.776h3.877a.775.775 0 100-1.551z" fill="#fff"/><path d="M34.9 21.53V4.469a.775.775 0 10-1.552 0v17.06a.776.776 0 001.551 0zM30.342 3.693a.775.775 0 00-.776.776v13.39a.775.775 0 101.551 0V4.47a.776.776 0 00-.775-.776zm0 16.882a.775.775 0 00-.776.776v.18a.775.775 0 101.551 0v-.18a.776.776 0 00-.775-.776zM26.56 3.693a.775.775 0 00-.775.776v13.39a.775.775 0 101.551 0V4.47a.775.775 0 00-.775-.776zm0 16.882a.775.775 0 00-.775.776v.18a.775.775 0 101.551 0v-.18a.775.775 0 00-.775-.776zM22.783 3.693a.775.775 0 00-.775.776v13.39a.776.776 0 101.55 0V4.47a.775.775 0 00-.775-.776zm0 16.881a.775.775 0 00-.775.776v.18a.775.775 0 101.55 0v-.18a.775.775 0 00-.775-.776zM19.002 3.693a.775.775 0 00-.775.776v13.39a.776.776 0 101.55 0V4.47a.775.775 0 00-.775-.776zm0 16.881a.775.775 0 00-.775.776v.18a.775.775 0 101.55 0v-.18a.775.775 0 00-.775-.776zM15.217 3.693a.775.775 0 00-.776.776v13.39a.776.776 0 101.551 0V4.47a.775.775 0 00-.775-.776zm0 16.881a.775.775 0 00-.776.776v.18a.775.775 0 101.551 0v-.18a.775.775 0 00-.775-.776zM11.44 3.693a.775.775 0 00-.776.776v13.39a.775.775 0 101.551 0V4.47a.775.775 0 00-.775-.776zm0 16.882a.775.775 0 00-.776.776v.18a.775.775 0 101.551 0v-.18a.775.775 0 00-.775-.776zM7.659 3.693a.775.775 0 00-.776.776v13.39a.775.775 0 101.551 0V4.47a.776.776 0 00-.775-.776zm0 16.882a.775.775 0 00-.776.776v.18a.775.775 0 101.551 0v-.18a.775.775 0 00-.775-.776zm-3.007.955V4.469a.775.775 0 10-1.55 0v17.06a.775.775 0 101.55 0z" fill="#fff"/></svg>
